outputs/icons/maps/near_me_round.svg

<svg xmlns="http://www.w3.org/2000/svg" width="1200" height="1200" fill="none"><g clip-path="url(#a)"><path fill="#000" d="M937.505 196.999 203.505 504c-41.499 17.5-40.499 76.5 1.001 92.5l267 103.5c13 5 23.499 15.5 28.499 28.5l103 266.5c16 42 75.5 43 93 1.5l307.5-733.502c16.5-41.499-25-82.999-66-65.999"/></g><defs><clipPath id="a"><path fill="#fff" d="M0 0h1200v1200H0z"/></clipPath></defs></svg>

<svg width="1200" height="1200" viewBox="0 0 1200 1200" fill="none" xmlns="http://www.w3.org/2000/svg"><g clip-path="url(#clip0_238_1710)"><path d="M937.505 196.999L203.505 504C162.006 521.5 163.006 580.5 204.506 596.5L471.506 700C484.506 705 495.005 715.5 500.005 728.5L603.005 995C619.005 1037 678.505 1038 696.005 996.5L1003.505 262.998C1020.005 221.499 978.505 179.999 937.505 196.999Z" fill="black"/></g><defs><clipPath id="clip0_238_1710"><path width="24" fill="white" d="M0 0H1200V1200H0V0z"/></clipPath></defs></svg>
